outputs/icons/action/log_in_round.svg

<svg xmlns="http://www.w3.org/2000/svg" width="1200" height="1200" fill="none"><g clip-path="url(#a)"><path fill="#000" d="M515 385c-19.5 19.5-19.5 50.5 0 70l95 95H150c-27.5 0-50 22.5-50 50s22.5 50 50 50h460l-95 95c-19.5 19.5-19.5 50.5 0 70s50.5 19.5 70 0l179.5-179.5c19.5-19.5 19.5-51 0-70.5L585 385c-19.5-19.5-50.5-19.5-70 0m485 565H650c-27.5 0-50 22.5-50 50s22.5 50 50 50h350c55 0 100-45 100-100V250c0-55-45-100-100-100H650c-27.5 0-50 22.5-50 50s22.5 50 50 50h350z"/></g><defs><clipPath id="a"><path fill="#fff" d="M0 0h1200v1200H0z"/></clipPath></defs></svg>

<svg width="1200" height="1200" viewBox="0 0 1200 1200" fill="none" xmlns="http://www.w3.org/2000/svg"><g clip-path="url(#clip0_223_1913)"><path d="M515 385C495.5 404.5 495.5 435.5 515 455L610 550H150C122.5 550 100 572.5 100 600C100 627.5 122.5 650 150 650H610L515 745C495.5 764.5 495.5 795.5 515 815C534.5 834.5 565.5 834.5 585 815L764.5 635.5C784 616 784 584.5 764.5 565L585 385C565.5 365.5 534.5 365.5 515 385ZM1000 950H650C622.5 950 600 972.5 600 1000C600 1027.5 622.5 1050 650 1050H1000C1055 1050 1100 1005 1100 950V250C1100 195 1055 150 1000 150H650C622.5 150 600 172.5 600 200C600 227.5 622.5 250 650 250H1000V950Z" fill="#1D1E23"/></g><defs><clipPath id="clip0_223_1913"><path width="24" fill="white" d="M0 0H1200V1200H0V0z"/></clipPath></defs></svg>
